public/ico/languages/html5.svg

<?xml version="1.0" encoding="UTF-8" standalone="no"?>
<svg
   viewBox="0 0 128 128"
   version="1.1"
   id="svg3568"
   sodipodi:docname="html5.svg"
   inkscape:version="1.1.1 (3bf5ae0d25, 2021-09-20)"
   xmlns:inkscape="http://www.inkscape.org/namespaces/inkscape"
   xmlns:sodipodi="http://sodipodi.sourceforge.net/DTD/sodipodi-0.dtd"
   xmlns="http://www.w3.org/2000/svg"
   xmlns:svg="http://www.w3.org/2000/svg">
  <defs
     id="defs3572" />
  <sodipodi:namedview
     id="namedview3570"
     pagecolor="#ffffff"
     bordercolor="#999999"
     borderopacity="1"
     inkscape:pageshadow="0"
     inkscape:pageopacity="0"
     inkscape:pagecheckerboard="0"
     showgrid="false"
     inkscape:zoom="2.7289902"
     inkscape:cx="63.943065"
     inkscape:cy="64.126283"
     inkscape:window-width="1366"
     inkscape:window-height="744"
     inkscape:window-x="-4"
     inkscape:window-y="-4"
     inkscape:window-maximized="1"
     inkscape:current-layer="svg3568" />
  <path
     fill="#e44d26"
     d="M 27.936032,104.0046 19.911213,13.999073 h 88.177577 l -8.03365,89.991877 -36.10888,10.00997 z"
     id="path3560"
     style="stroke-width:0.802081" />
  <path
     fill="#f16529"
     d="M 64,106.34987 93.178103,98.260088 100.04311,21.358166 H 64 Z"
     id="path3562"
     style="stroke-width:0.802081" />
  <path
     fill="#ebebeb"
     d="M 64,54.739975 H 49.392501 L 48.383483,43.435446 H 64 V 32.397207 H 36.319383 l 0.264687,2.961283 2.712638,30.420525 H 64 Z m 0,28.66878 -0.04893,0.01363 -12.293495,-3.320613 -0.785237,-8.802839 H 39.789988 L 41.3364,88.631105 63.949469,94.908191 64,94.894556 Z"
     id="path3564"
     style="stroke-width:0.802081" />
  <path
     fill="#ffffff"
     d="m 63.9615,54.739975 v 11.03904 H 77.554367 L 76.273444,80.095359 63.9615,83.41838 v 11.484998 l 22.630716,-6.272273 0.16603,-1.864838 2.59393,-29.061801 0.268697,-2.964491 h -2.974116 z m 0,-22.342768 v 11.038239 h 26.66438 l 0.221375,-2.480035 0.503707,-5.596921 0.263884,-2.961283 z"
     id="path3566"
     style="stroke-width:0.802081" />
</svg>

<svg viewBox="0 0 128 128" xmlns="http://www.w3.org/2000/svg"><path fill="#e44d26" d="m27.936 104.005-8.025-90.006h88.178l-8.034 89.992-36.109 10.01z" style="stroke-width:.802081"/><path fill="#f16529" d="m64 106.35 29.178-8.09 6.865-76.902H64z" style="stroke-width:.802081"/><path fill="#ebebeb" d="M64 54.74H49.393l-1.01-11.305H64V32.397H36.32l.264 2.961 2.713 30.421H64zm0 28.669-.049.013-12.293-3.32-.786-8.803H39.79l1.546 17.332 22.613 6.277.051-.013z" style="stroke-width:.802081"/><path fill="#fff" d="M63.962 54.74v11.039h13.592l-1.28 14.316-12.313 3.323v11.485l22.631-6.272.166-1.865 2.594-29.062.269-2.964h-2.974zm0-22.343v11.038h26.664l.221-2.48.504-5.597.264-2.96z" style="stroke-width:.802081"/></svg>
